svg/u1f477_200d_2642.svg

<svg viewBox="0 0 128 128" xmlns="http://www.w3.org/2000/svg" xmlns:xlink="http://www.w3.org/1999/xlink">
  <g id="helmet_x5F_back_1_">
    <path d="M18,52.5c0,9.34,20.6,16.92,46,16.92s46-7.58,46-16.92C110,43.15,18,43.15,18,52.5z" fill="#FFEA00"/>
    <path d="M105.38,52.49c-8.12-5.31-19.54-9.71-41.38-9.72c-21.85,0.01-33.27,4.4-41.38,9.72 c-0.62,0.41-0.78,1.21-0.33,1.8C26.75,60.12,45.76,65.86,64,65.88c18.24-0.02,38-6.62,41.71-11.58 C106.15,53.7,106.01,52.9,105.38,52.49z" fill="#EDBF00"/>
  </g>
  <g id="shirt_1_">
    <linearGradient id="SVGID_1_" gradientTransform="matrix(1 0 0 -1 0 130)" gradientUnits="userSpaceOnUse" x1="64" x2="64" y1="34.1991" y2="-7.6178">
      <stop offset="3.200000e-03" stop-color="#448AFF"/>
      <stop offset="0.4042" stop-color="#3B7DFF"/>
      <stop offset="1" stop-color="#2962FF"/>
    </linearGradient>
    <path d="M116,123.98v-3.12c0-16.78-26.35-25.09-52-25.06c-25.49,0.03-52,7.28-52,25.06v3.12H116z" fill="url(#SVGID_1_)"/>
  </g>
  <g id="safety_x5F_jacket_1_">
    <g>
      <g>
        <linearGradient id="SVGID_2_" gradientTransform="matrix(1 0 0 -1 0 130)" gradientUnits="userSpaceOnUse" x1="44.025" x2="44.025" y1="31.8282" y2="-5.8907">
          <stop offset="3.200000e-03" stop-color="#FF9100"/>
          <stop offset="0.4399" stop-color="#FF8400"/>
          <stop offset="1" stop-color="#FF6D00"/>
        </linearGradient>
        <path d="M58.5,123.98H29.55v-22.74c1.79-0.7,3.68-1.32,5.64-1.86c2.89-0.82,5.94-1.49,9.1-2.01 c2.14-0.36,4.33-0.65,6.55-0.88L58.5,123.98z" fill="url(#SVGID_2_)"/>
      </g>
      <linearGradient id="SVGID_3_" gradientTransform="matrix(1 0 0 -1 0 130)" gradientUnits="userSpaceOnUse" x1="43.075" x2="43.075" y1="32.036" y2="-6.675">
        <stop offset="3.200000e-03" stop-color="#FFFF00"/>
        <stop offset="0.6783" stop-color="#FFF200"/>
        <stop offset="1" stop-color="#FFEA00"/>
      </linearGradient>
      <path d="M50.96,123.98H36.29l-1.1-24.6c2.89-0.82,5.94-1.49,9.1-2.01L50.96,123.98z" fill="url(#SVGID_3_)"/>
    </g>
    <g>
      <g>
        <linearGradient id="SVGID_4_" gradientTransform="matrix(1 0 0 -1 0 130)" gradientUnits="userSpaceOnUse" x1="83.975" x2="83.975" y1="31.7906" y2="-5.8734">
          <stop offset="3.200000e-03" stop-color="#FF9100"/>
          <stop offset="0.4399" stop-color="#FF8400"/>
          <stop offset="1" stop-color="#FF6D00"/>
        </linearGradient>
        <path d="M98.45,101.54v22.44H69.5l7.65-27.45c2.21,0.24,4.4,0.56,6.53,0.94 c3.17,0.57,6.23,1.27,9.12,2.13C94.77,100.18,96.66,100.83,98.45,101.54z" fill="url(#SVGID_4_)"/>
      </g>
      <linearGradient id="SVGID_5_" gradientTransform="matrix(1 0 0 -1 0 130)" gradientUnits="userSpaceOnUse" x1="84.92" x2="84.92" y1="31.9382" y2="-6.6273">
        <stop offset="3.200000e-03" stop-color="#FFFF00"/>
        <stop offset="0.6783" stop-color="#FFF200"/>
        <stop offset="1" stop-color="#FFEA00"/>
      </linearGradient>
      <path d="M92.8,99.6l-1.09,24.38H77.04l6.64-26.51C86.85,98.04,89.91,98.74,92.8,99.6z" fill="url(#SVGID_5_)"/>
    </g>
  </g>
  <g id="neck">
    <path id="neck_1_" d="M64,90.16h-9.08v9.98c0,4.51,3.7,8.17,8.26,8.17h1.65c4.56,0,8.26-3.66,8.26-8.17 v-9.98C73.08,90.16,64,90.16,64,90.16z" fill="#E59600"/>
  </g>
  <g id="face">
    <g id="ears_1_">
      <path id="ears" d="M91.33,50.52h-7.37H44.04h-7.37c-5.89,0-10.71,5.14-10.71,11.41s4.82,11.41,10.71,11.41 h7.37h39.91h7.37c5.89,0,10.71-5.14,10.71-11.41S97.22,50.52,91.33,50.52z" fill="#E59600"/>
    </g>
    <path id="head" d="M64,11.15c-17.4,0-33.52,18.61-33.52,45.39c0,26.64,16.61,39.81,33.52,39.81 s33.52-13.17,33.52-39.81C97.52,29.76,81.4,11.15,64,11.15z" fill="#FFCA28"/>
    <path id="nose_1_" d="M67.86,68.14c-0.11-0.04-0.21-0.07-0.32-0.08h-7.08c-0.11,0.01-0.22,0.04-0.32,0.08 c-0.64,0.26-0.99,0.92-0.69,1.63c0.3,0.71,1.71,2.69,4.55,2.69s4.25-1.99,4.55-2.69C68.85,69.07,68.5,68.4,67.86,68.14z" fill="#E59600"/>
    <path id="mouth_1_" d="M72.42,76.23c-3.18,1.89-13.63,1.89-16.81,0c-1.83-1.09-3.7,0.58-2.94,2.24 c0.75,1.63,6.44,5.42,11.37,5.42s10.55-3.79,11.3-5.42C76.09,76.8,74.25,75.14,72.42,76.23z" fill="#795548"/>
    <g id="eyebrows_2_">
      <path d="M87.15,50.83L87.15,50.83c0-0.01-2.27-3.7-7.55-3.7s-7.56,3.69-7.56,3.69l0,0.01 c-0.19,0.27-0.3,0.59-0.3,0.94c0,0.89,0.7,1.62,1.57,1.62c0.18,0,0.62-0.13,0.66-0.15c3.16-1.35,5.64-1.35,5.64-1.35 s2.46,0.01,5.62,1.36c0.04,0.02,0.48,0.15,0.66,0.15c0.86,0,1.57-0.72,1.57-1.62C87.45,51.42,87.34,51.1,87.15,50.83z" fill="#6D4C41"/>
      <path d="M55.96,50.83L55.96,50.83c0.01-0.01-2.27-3.7-7.55-3.7s-7.56,3.69-7.56,3.69l0.01,0.01 c-0.19,0.27-0.3,0.59-0.3,0.94c0,0.89,0.7,1.62,1.57,1.62c0.18,0,0.62-0.13,0.66-0.15c3.16-1.35,5.64-1.35,5.64-1.35 s2.46,0.01,5.62,1.36c0.04,0.02,0.48,0.15,0.66,0.15c0.87,0,1.57-0.72,1.57-1.62C56.26,51.42,56.15,51.1,55.96,50.83z" fill="#6D4C41"/>
    </g>
    <g id="hair">
      <path id="hair_1_" d="M64.31,11.11c-45.44,0.24-36.13,45.14-36.13,45.14s5.1,8.99,5.1,8.81 c-0.17-7.25,2.74-20.09,4.8-25.55c1.04-2.76,3.9-4.36,6.79-3.83c4.45,0.81,11.55,1.81,19.37,1.81c0.03,0,0.06,0,0.08,0 s0.06,0,0.08,0c7.82,0,14.92-1,19.37-1.81c2.9-0.53,5.76,1.08,6.79,3.83c2.06,5.47,4.96,18.3,4.8,25.55c0,0.18,5.1-8.81,5.1-8.81 s9.31-44.9-36.13-45.14L64.31,11.11z" fill="#543930"/>
    </g>
    <g id="eyes_2_">
      <ellipse cx="48.4" cy="58.81" fill="#404040" rx="4.93" ry="5.1"/>
      <ellipse cx="79.6" cy="58.81" fill="#404040" rx="4.93" ry="5.1"/>
    </g>
  </g>
  <g id="helmet">
    <radialGradient id="XMLID_2_" cx="64" cy="98.3245" gradientTransform="matrix(1 0 0 -0.9806 0 127.575)" gradientUnits="userSpaceOnUse" r="34.638">
      <stop offset="0" stop-color="#FFFF00"/>
      <stop offset="0.325" stop-color="#FFF600"/>
      <stop offset="0.8535" stop-color="#FFDE00"/>
      <stop offset="0.9978" stop-color="#FFD600"/>
    </radialGradient>
    <path id="XMLID_7_" d="M64.41,7.94c-46.76,0-43.24,46.43-43.24,46.43s12.21-10.8,43.5-10.8 s42.1,9.8,42.1,9.8S111.17,7.94,64.41,7.94z" fill="url(#XMLID_2_)"/>
    <linearGradient id="SVGID_6_" gradientTransform="matrix(1 0 0 -1 0 130)" gradientUnits="userSpaceOnUse" x1="64.3215" x2="64.3215" y1="125.2446" y2="88.2071">
      <stop offset="0" stop-color="#FFFF00"/>
      <stop offset="0.4462" stop-color="#FFF900"/>
      <stop offset="1" stop-color="#FFEA00"/>
    </linearGradient>
    <path d="M74.72,42.17h-20.8V9.07c0-2.79,2.26-5.05,5.05-5.05h10.7c2.79,0,5.05,2.26,5.05,5.05V42.17z " fill="url(#SVGID_6_)"/>
    <g>
      <g>
        <defs>
          <path id="SVGID_7_" d="M64.41,7.94c-46.76,0-43.24,46.43-43.24,46.43s12.21-10.8,43.5-10.8s42.1,9.8,42.1,9.8 S111.17,7.94,64.41,7.94z"/>
        </defs>
        <clipPath id="SVGID_8_">
          <use overflow="visible" xlink:href="#SVGID_7_"/>
        </clipPath>
        <path id="XMLID_6_" clip-path="url(#SVGID_8_)" d="M47.12,10.24 l6.95-2.3v23.29C52.66,21.17,50.64,13.89,47.12,10.24z" enable-background="new " fill="#EDBF00" opacity="0.5"/>
      </g>
      <g>
        <defs>
          <path id="SVGID_9_" d="M64.41,7.94c-46.76,0-43.24,46.43-43.24,46.43s12.21-10.8,43.5-10.8s42.1,9.8,42.1,9.8 S111.17,7.94,64.41,7.94z"/>
        </defs>
        <clipPath id="SVGID_10_">
          <use overflow="visible" xlink:href="#SVGID_9_"/>
        </clipPath>
        <path clip-path="url(#SVGID_10_)" d="M81.71,10.24l-6.95-2.3v23.29 C76.17,21.17,78.19,13.89,81.71,10.24z" enable-background="new " fill="#EDBF00" opacity="0.5"/>
      </g>
    </g>
    <path d="M109.53,51.01c-0.25-0.42-0.64-0.74-1.07-0.99C90.36,39.6,64,39.95,64,39.95S37.64,39.6,19.54,50.02 c-0.44,0.25-0.82,0.57-1.07,0.99c-0.53,0.9-0.97,2.61,0.75,5.08c0,0,10.95-10.85,44.78-11.53c33.82,0.69,44.78,11.53,44.78,11.53 C110.5,53.62,110.06,51.91,109.53,51.01z" fill="#FFEA00"/>
  </g>
</svg>

<svg viewBox="0 0 128 128" xmlns="http://www.w3.org/2000/svg">
  <defs>
    <linearGradient id="SVGID_1_" gradientTransform="matrix(1 0 0 -1 0 0)" gradientUnits="userSpaceOnUse" x1="64" x2="64" y1="-95.8009" y2="-137.6178">
      <stop offset="3.200000e-03" stop-color="#448AFF"/>
      <stop offset="0.4042" stop-color="#3B7DFF"/>
      <stop offset="1" stop-color="#2962FF"/>
    </linearGradient>
    <radialGradient id="XMLID_2_" cx="64" cy="-31.774419" gradientTransform="matrix(1 0 0 -0.9806 0 0)" gradientUnits="userSpaceOnUse" r="34.638">
      <stop offset="0" stop-color="#FFFF00"/>
      <stop offset="0.325" stop-color="#FFF600"/>
      <stop offset="0.8535" stop-color="#FFDE00"/>
      <stop offset="0.9978" stop-color="#FFD600"/>
    </radialGradient>
    <linearGradient id="SVGID_2_" gradientTransform="matrix(1 0 0 -1 0 0)" gradientUnits="userSpaceOnUse" x1="44.025" x2="44.025" y1="-98.1718" y2="-135.8907">
      <stop offset="3.200000e-03" stop-color="#FF9100"/>
      <stop offset="0.4399" stop-color="#FF8400"/>
      <stop offset="1" stop-color="#FF6D00"/>
    </linearGradient>
    <linearGradient id="SVGID_3_" gradientTransform="matrix(1 0 0 -1 0 0)" gradientUnits="userSpaceOnUse" x1="43.075" x2="43.075" y1="-97.964" y2="-136.675">
      <stop offset="3.200000e-03" stop-color="#FFFF00"/>
      <stop offset="0.6783" stop-color="#FFF200"/>
      <stop offset="1" stop-color="#FFEA00"/>
    </linearGradient>
    <linearGradient id="SVGID_4_" gradientTransform="matrix(1 0 0 -1 0 0)" gradientUnits="userSpaceOnUse" x1="83.975" x2="83.975" y1="-98.2094" y2="-135.8734">
      <stop offset="3.200000e-03" stop-color="#FF9100"/>
      <stop offset="0.4399" stop-color="#FF8400"/>
      <stop offset="1" stop-color="#FF6D00"/>
    </linearGradient>
    <linearGradient id="SVGID_5_" gradientTransform="matrix(1 0 0 -1 0 0)" gradientUnits="userSpaceOnUse" x1="84.92" x2="84.92" y1="-98.0618" y2="-136.6273">
      <stop offset="3.200000e-03" stop-color="#FFFF00"/>
      <stop offset="0.6783" stop-color="#FFF200"/>
      <stop offset="1" stop-color="#FFEA00"/>
    </linearGradient>
    <linearGradient id="SVGID_6_" gradientTransform="matrix(1 0 0 -1 0 0)" gradientUnits="userSpaceOnUse" x1="64.3215" x2="64.3215" y1="-4.7554" y2="-41.7929">
      <stop offset="0" stop-color="#FFFF00"/>
      <stop offset="0.4462" stop-color="#FFF900"/>
      <stop offset="1" stop-color="#FFEA00"/>
    </linearGradient>
  </defs>
  <path d="M18,52.5 C18,61.84 38.6,69.42 64,69.42 C89.4,69.42 110,61.84 110,52.5 C110,43.15 18,43.15 18,52.5 Z" fill="#FFEA00"/>
  <path d="M105.38,52.49 C97.26,47.18 85.84,42.78 64,42.77 C42.15,42.78 30.73,47.17 22.62,52.49 C22,52.9 21.84,53.7 22.29,54.29 C26.75,60.12 45.76,65.86 64,65.88 C82.24,65.86 102,59.26 105.71,54.3 C106.15,53.7 106.01,52.9 105.38,52.49 Z" fill="#EDBF00"/>
  <path d="M116,123.98 L116,120.86 C116,104.08 89.65,95.77 64,95.8 C38.51,95.83 12,103.08 12,120.86 L12,123.98 L116,123.98 Z" fill="url(#SVGID_1_)"/>
  <path d="M58.5,123.98 L29.55,123.98 L29.55,101.24 C31.34,100.54 33.23,99.92 35.19,99.38 C38.08,98.56 41.13,97.89 44.29,97.37 C46.43,97.01 48.62,96.72 50.84,96.49 L58.5,123.98 Z" fill="url(#SVGID_2_)"/>
  <path d="M50.96,123.98 L36.29,123.98 L35.19,99.38 C38.08,98.56 41.13,97.89 44.29,97.37 L50.96,123.98 Z" fill="url(#SVGID_3_)"/>
  <path d="M98.45,101.54 L98.45,123.98 L69.5,123.98 L77.15,96.53 C79.36,96.77 81.55,97.09 83.68,97.47 C86.85,98.04 89.91,98.74 92.8,99.6 C94.77,100.18 96.66,100.83 98.45,101.54 Z" fill="url(#SVGID_4_)"/>
  <path d="M92.8,99.6 L91.71,123.98 L77.04,123.98 L83.68,97.47 C86.85,98.04 89.91,98.74 92.8,99.6 Z" fill="url(#SVGID_5_)"/>
  <path id="neck_1_" d="M64,90.16 L54.92,90.16 L54.92,100.14 C54.92,104.65 58.62,108.31 63.18,108.31 L64.83,108.31 C69.39,108.31 73.09,104.65 73.09,100.14 L73.09,90.16 C73.08,90.16 64,90.16 64,90.16 Z" fill="#E59600"/>
  <path id="ears" d="M91.33,50.52 L83.96,50.52 L44.04,50.52 L36.67,50.52 C30.78,50.52 25.96,55.66 25.96,61.93 C25.96,68.2 30.78,73.34 36.67,73.34 L44.04,73.34 L83.95,73.34 L91.32,73.34 C97.21,73.34 102.03,68.2 102.03,61.93 C102.03,55.66 97.22,50.52 91.33,50.52 Z" fill="#E59600"/>
  <path id="head" d="M64,11.15 C46.6,11.15 30.48,29.76 30.48,56.54 C30.48,83.18 47.09,96.35 64,96.35 C80.91,96.35 97.52,83.18 97.52,56.54 C97.52,29.76 81.4,11.15 64,11.15 Z" fill="#FFCA28"/>
  <path id="nose_1_" d="M67.86,68.14 C67.75,68.1 67.65,68.07 67.54,68.06 L60.46,68.06 C60.35,68.07 60.24,68.1 60.14,68.14 C59.5,68.4 59.15,69.06 59.45,69.77 C59.75,70.48 61.16,72.46 64,72.46 C66.84,72.46 68.25,70.47 68.55,69.77 C68.85,69.07 68.5,68.4 67.86,68.14 Z" fill="#E59600"/>
  <path id="mouth_1_" d="M72.42,76.23 C69.24,78.12 58.79,78.12 55.61,76.23 C53.78,75.14 51.91,76.81 52.67,78.47 C53.42,80.1 59.11,83.89 64.04,83.89 C68.97,83.89 74.59,80.1 75.34,78.47 C76.09,76.8 74.25,75.14 72.42,76.23 Z" fill="#795548"/>
  <path d="M87.15,50.83 L87.15,50.83 C87.15,50.82 84.88,47.13 79.6,47.13 C74.32,47.13 72.04,50.82 72.04,50.82 L72.04,50.83 C71.85,51.1 71.74,51.42 71.74,51.77 C71.74,52.66 72.44,53.39 73.31,53.39 C73.49,53.39 73.93,53.26 73.97,53.24 C77.13,51.89 79.61,51.89 79.61,51.89 C79.61,51.89 82.07,51.9 85.23,53.25 C85.27,53.27 85.71,53.4 85.89,53.4 C86.75,53.4 87.46,52.68 87.46,51.78 C87.45,51.42 87.34,51.1 87.15,50.83 Z" fill="#6D4C41"/>
  <path d="M55.96,50.83 L55.96,50.83 C55.97,50.82 53.69,47.13 48.41,47.13 C43.13,47.13 40.85,50.82 40.85,50.82 L40.86,50.83 C40.67,51.1 40.56,51.42 40.56,51.77 C40.56,52.66 41.26,53.39 42.13,53.39 C42.31,53.39 42.75,53.26 42.79,53.24 C45.95,51.89 48.43,51.89 48.43,51.89 C48.43,51.89 50.89,51.9 54.05,53.25 C54.09,53.27 54.53,53.4 54.71,53.4 C55.58,53.4 56.28,52.68 56.28,51.78 C56.26,51.42 56.15,51.1 55.96,50.83 Z" fill="#6D4C41"/>
  <path id="hair_1_" d="M64.31,11.11 C18.87,11.35 28.18,56.25 28.18,56.25 C28.18,56.25 33.28,65.24 33.28,65.06 C33.11,57.81 36.02,44.97 38.08,39.51 C39.12,36.75 41.98,35.15 44.87,35.68 C49.32,36.49 56.42,37.49 64.24,37.49 C64.27,37.49 64.3,37.49 64.32,37.49 C64.34,37.49 64.38,37.49 64.4,37.49 C72.22,37.49 79.32,36.49 83.77,35.68 C86.67,35.15 89.53,36.76 90.56,39.51 C92.62,44.98 95.52,57.81 95.36,65.06 C95.36,65.24 100.46,56.25 100.46,56.25 C100.46,56.25 109.77,11.35 64.33,11.11 L64.31,11.11 Z" fill="#543930"/>
  <path d="M53.33,58.81 A4.93 5.1 0 1 1 43.47,58.81 A4.93 5.1 0 1 1 53.33,58.81 Z" fill="#404040"/>
  <path d="M84.53,58.81 A4.93 5.1 0 1 1 74.67,58.81 A4.93 5.1 0 1 1 84.53,58.81 Z" fill="#404040"/>
  <path id="XMLID_7_" d="M64.41,7.94 C17.65,7.94 21.17,54.37 21.17,54.37 C21.17,54.37 33.38,43.57 64.67,43.57 C95.96,43.57 106.77,53.37 106.77,53.37 C106.77,53.37 111.17,7.94 64.41,7.94 Z" fill="url(#XMLID_2_)"/>
  <path d="M74.72,42.17 L53.92,42.17 L53.92,9.07 C53.92,6.28 56.18,4.02 58.97,4.02 L69.67,4.02 C72.46,4.02 74.72,6.28 74.72,9.07 L74.72,42.17 Z" fill="url(#SVGID_6_)"/>
  <path id="XMLID_6_" d="M54.07,8.794 L54.07,31.23 C52.692,21.395 50.73,14.217 47.354,10.491 C49.426,9.791 51.66,9.218 54.07,8.794 Z" fill="#EDBF00" opacity="0.5"/>
  <path d="M74.76,8.78 C77.184,9.2 79.426,9.769 81.5,10.463 C78.109,14.182 76.142,21.371 74.76,31.23 Z" fill="#EDBF00" opacity="0.5"/>
  <path d="M109.53,51.01 C109.28,50.59 108.89,50.27 108.46,50.02 C90.36,39.6 64,39.95 64,39.95 C64,39.95 37.64,39.6 19.54,50.02 C19.1,50.27 18.72,50.59 18.47,51.01 C17.94,51.91 17.5,53.62 19.22,56.09 C19.22,56.09 30.17,45.24 64,44.56 C97.82,45.25 108.78,56.09 108.78,56.09 C110.5,53.62 110.06,51.91 109.53,51.01 Z" fill="#FFEA00"/>
</svg>
